Mono Glyph Icons/actions/unfilled/edit-table-delete-column.svg

<svg viewBox="0 0 22 22" xmlns="http://www.w3.org/2000/svg"><path d="m3 3v1 14 1h15 1v-16h-1zm1 1h2v3 1h-1.0996094-.9003906zm3 0h1 1 1 2 1 1 1v3 1h-1v1h1v4h-1v1h1v4h-1-1-1-2-1-1-1v-4h1v-1h-1v-4h1v-1h-1v-1zm9 0h2v4h-1-1v-1zm-12 5h2v4h-2zm12 0h1 1v4h-1-1zm-12 5h2v4h-2zm12 0h1 1v4h-2v-3z"/><path d="m19.5 3v16c0 .276-.224.5-.5.5h-16c-.276 0-.5-.224-.5-.5v-16c0-.276.224-.5.5-.5h16c.276 0 .5.224.5.5zm-16 .5v.5c0-.276.224-.5.5-.5zm0 15h.5c-.276 0-.5-.224-.5-.5zm3.5 0c-.276 0-.5-.224-.5-.5 0 .276-.224.5-.5.5zm0-5c-.276 0-.5-.224-.5-.5 0 .276-.224.5-.5.5.276 0 .5.224.5.5 0-.276.224-.5.5-.5zm-3.5.5c0-.276.224-.5.5-.5-.276 0-.5-.224-.5-.5zm3.5-5.5c-.276 0-.5-.224-.5-.5 0 .276-.224.5-.5.5.276 0 .5.224.5.5 0-.276.224-.5.5-.5zm-3.5.5c0-.276.224-.5.5-.5-.276 0-.5-.224-.5-.5zm15 9.5v-.5c0 .276-.224.5-.5.5zm0-5.5c0 .276-.224.5-.5.5.276 0 .5.224.5.5zm-3 0c0 .276-.224.5-.5.5.276 0 .5.224.5.5 0-.276.224-.5.5-.5-.276 0-.5-.224-.5-.5zm-.5 5.5h1c-.276 0-.5-.224-.5-.5 0 .276-.224.5-.5.5zm3.5-10.5c0 .276-.224.5-.5.5.276 0 .5.224.5.5zm-3 0c0 .276-.224.5-.5.5.276 0 .5.224.5.5 0-.276.224-.5.5-.5-.276 0-.5-.224-.5-.5zm3-4.5h-.5c.276 0 .5.224.5.5zm-3.5 0c.276 0 .5.224.5.5 0-.276.224-.5.5-.5zm-9 0c.276 0 .5.224.5.5 0-.276.224-.5.5-.5zm-1.5 4h1v-3h-1zm12 0h1v-3h-1zm-12 5h1v-3h-1zm12 0h1v-3h-1zm-12 5h1v-3h-1zm12 0h1v-3h-1zm-4-2.586-2.586 2.586h2.586zm-3-7.828 2.586-2.586h-2.586zm3.854-2.439-.7.699c.143-.137.354-.177.537-.101.187.077.309.26.309.462v-1.207h-.045c-.024.054-.059.104-.101.147zm-4.545 4.108c-.187-.077-.309-.26-.309-.462v1.414c0-.133.053-.26.146-.354l.7-.699c-.143.137-.354.177-.537.101zm-.163 4.598.7-.699c-.143.137-.354.177-.537.101-.187-.077-.309-.26-.309-.462v1.414c0-.133.053-.26.146-.354zm4.545-4.108c.187.077.309.26.309.462v-1.414c0 .133-.053.26-.146.354l-.7.699c.143-.137.354-.177.537-.101zm-4.545 8.108.7-.699c-.143.137-.354.177-.537.101-.187-.077-.309-.26-.309-.462v1.207h.045c.024-.054.059-.104.101-.147zm4.545-4.108c.187.077.309.26.309.462v-1.414c0 .133-.053.26-.146.354l-.7.699c.143-.137.354-.177.537-.101zm-.691-1.159v-1.172l-3 3v1.172zm0-4v-1.172l-3 3v1.172z"/><path d="m14 18v-5.29297-4-4-.70703h-.70703-.29297v.29297l-4 4v-4.29297h-1v14h1v-.29297l4-4v4.29297zm-5-1.70703v-2.58594l4-4v2.58594zm0-4v-2.58594l4-4v2.58594z"/></svg>

<?xml version="1.0" encoding="utf-8"?>
<svg viewBox="0 0 22 22" xmlns="http://www.w3.org/2000/svg">
  <path d="M 19.5 3 L 19.5 19 C 19.5 19.276 19.276 19.5 19 19.5 L 3 19.5 C 2.724 19.5 2.5 19.276 2.5 19 L 2.5 3 C 2.5 2.724 2.724 2.5 3 2.5 L 19 2.5 C 19.276 2.5 19.5 2.724 19.5 3 Z M 4.5 7.5 L 5.5 7.5 L 5.5 4.5 L 4.5 4.5 Z M 16.5 7.5 L 17.5 7.5 L 17.5 4.5 L 16.5 4.5 Z M 4.5 12.5 L 5.5 12.5 L 5.5 9.5 L 4.5 9.5 Z M 16.5 12.5 L 17.5 12.5 L 17.5 9.5 L 16.5 9.5 Z M 4.5 17.5 L 5.5 17.5 L 5.5 14.5 L 4.5 14.5 Z M 16.5 17.5 L 17.5 17.5 L 17.5 14.5 L 16.5 14.5 Z M 12.5 14.914 L 9.914 17.5 L 12.5 17.5 Z M 9.5 7.086 L 12.086 4.5 L 9.5 4.5 Z M 12.5 12.086 L 12.5 10.914 L 9.5 13.914 L 9.5 15.086 Z M 12.5 8.086 L 12.5 6.914 L 9.5 9.914 L 9.5 11.086 Z"/>
</svg>
